X:1076
T:Valentine
C:Charles Bolton, 1988
L:1/4
M:6/4
R:Jig
S:Colin Hume's website,  colinhume.com  - chords can also be printed below the stave.
%%MIDI gchord bzcbzc
%%MIDI program 71     Clarinet
%%MIDI bassprog 46    Orchestral Harp
%%MIDI chordprog 46   Orchestral Harp
Q:3/4=90
K:G
P:A
|: "G"D2G- GBG | "Am"A2c "G"BAG | "Am"AcA "G"BAG | "Bm"Bd2- "G7"dBd |
"C"e2g "G"dcB | "Am"cde "Bm"dBA |1 "Em"GAB "A7"GFE | "D"A3- "D7"AFE :|
[2 "C"GAB "Am"GED | "G"EG2- "/"GBd |
P:B
"C"e2g- "Am"gfe | "G"d2g- "Em"ged | "Am"cde "D"d2c | "Bm"Bd2- "G7"dcB |
"Cm"c2g- "/"gcd | "Em"B2g- "/"gcB | "A"A2a "A7"ge^c | "D"d3- "D7"dFE |
"G"D2G- GBG | "Am"A2c "G"BAG | "Am"AcA "G"BAG | "Bm"Bd2- "G7"dBd |
"C"e2g- "Am"gfe | "G"dBg "Em"G2D | "C"EGA "Am"GED | "G"EG2- "/"G3 |]

